X: 16798
T: Harris Dance
R: reel
M: 4/4
K: Amixolydian
|:c2 g<e f<g a2|g2 eg geed|c2 g<e f<g a2|gede AA A2:|
|:e2dc A2G2|e2 dc AAAG|e2 dc A2G2|cdcA GG G2:|

